proprietary/assets/icons/gebruiksvoorwerpen/telraam.svg

<svg height="64" viewBox="0 0 64 64" width="64" xmlns="http://www.w3.org/2000/svg"><path d="m0 0h64v64h-64z" fill="none"/><path d="m57 7h-2c-1.1046 0-2 .8954-2 2v6h-1.6933c-.2925 1.567-.691 2.3304-.8519 2.6636-.1357.2812-.3174.3636-.4548.3278v-2.4914c0-1.925-1.575-3.5-3.5-3.5-1.7538 0-3.2029 1.3116-3.4492 3h-.0508-8.6933c-.2925 1.567-.691 2.3304-.8519 2.6636-.1357.2812-.3174.3636-.4548.3278v-2.4914c0-1.925-1.575-3.5-3.5-3.5-1.7538 0-3.2029 1.3116-3.4492 3h-.0508-1.6933c-.2925 1.567-.691 2.3304-.8519 2.6636-.1357.2812-.3174.3636-.4548.3278v-2.4914c0-1.925-1.575-3.5-3.5-3.5-1.7538 0-3.2029 1.3116-3.4492 3h-.0508-5v-6c0-1.1046-.8954-2-2-2h-2c-1.1046 0-2 .8954-2 2v48h6v-8h9 .0508c.2463 1.6884 1.6954 3 3.4492 3s3.2029-1.3116 3.4492-3h4.0508.0508c.2463 1.6884 1.6954 3 3.4492 3s3.2029-1.3116 3.4492-3h5.0508.0508c.2463 1.6884 1.6954 3 3.4492 3s3.2029-1.3116 3.4492-3h3.0508v8h6v-48c0-1.1046-.8954-2-2-2zm-4 37h-1.6933c-.2925 1.567-.691 2.3304-.8519 2.6636-.1357.2812-.3174.3636-.4548.3278v-2.4914c0-1.925-1.575-3.5-3.5-3.5-1.7538 0-3.2029 1.3116-3.4492 3h-.0508-3.6933c-.2925 1.567-.691 2.3304-.8519 2.6636-.1357.2812-.3174.3636-.4548.3278v-2.4914c0-1.925-1.575-3.5-3.5-3.5-1.7538 0-3.2029 1.3116-3.4492 3h-.0508-2.6933c-.2925 1.567-.691 2.3304-.8519 2.6636-.1357.2812-.3174.3636-.4548.3278v-2.4914c0-1.925-1.575-3.5-3.5-3.5-1.7538 0-3.2029 1.3116-3.4492 3h-.0508-9v-9h2 .0508c.2463 1.6884 1.6954 3 3.4492 3s3.2029-1.3116 3.4492-3h10.0508.0508c.2463 1.6884 1.6954 3 3.4492 3s3.2029-1.3116 3.4492-3h4.0508.0508c.2463 1.6884 1.6954 3 3.4492 3s3.2029-1.3116 3.4492-3h5.0508zm0-14h-3.6933c-.2925 1.567-.691 2.3304-.8519 2.6636-.1357.2812-.3174.3636-.4548.3278v-2.4914c0-1.925-1.575-3.5-3.5-3.5-1.7538 0-3.2029 1.3116-3.4492 3h-.0508-2.6933c-.2925 1.567-.691 2.3304-.8519 2.6636-.1357.2812-.3174.3636-.4548.3278v-2.4914c0-1.925-1.575-3.5-3.5-3.5-1.7538 0-3.2029 1.3116-3.4492 3h-.0508-8.6933c-.2925 1.567-.691 2.3304-.8519 2.6636-.1357.2812-.3174.3636-.4548.3278v-2.4914c0-1.925-1.575-3.5-3.5-3.5-1.7538 0-3.2029 1.3116-3.4492 3h-.0508-2v-10h5 .0508c.2463 1.6884 1.6954 3 3.4492 3s3.2029-1.3116 3.4492-3h3.0508.0508c.2463 1.6884 1.6954 3 3.4492 3s3.2029-1.3116 3.4492-3h10.0508.0508c.2463 1.6884 1.6954 3 3.4492 3s3.2029-1.3116 3.4492-3h3.0508z"/></svg>

<?xml version="1.0" encoding="utf-8"?>
<!-- Generator: Adobe Illustrator 19.1.0, SVG Export Plug-In . SVG Version: 6.00 Build 0)  -->
<svg version="1.2" baseProfile="tiny" xmlns="http://www.w3.org/2000/svg" xmlns:xlink="http://www.w3.org/1999/xlink" x="0px"
	 y="0px" width="64px" height="64px" viewBox="0 0 64 64" xml:space="preserve">
<g id="_x36_4px_Box">
	<rect fill="none" width="64" height="64"/>
</g>
<g id="Icon">
	<path d="M57,7h-2c-1.1046,0-2,0.8954-2,2v6h-1.6933c-0.2925,1.567-0.691,2.3304-0.8519,2.6636
		c-0.1357,0.2812-0.3174,0.3636-0.4548,0.3278V15.5c0-1.925-1.575-3.5-3.5-3.5c-1.7538,0-3.2029,1.3116-3.4492,3H43h-8.6933
		c-0.2925,1.567-0.691,2.3304-0.8519,2.6636c-0.1357,0.2812-0.3174,0.3636-0.4548,0.3278V15.5c0-1.925-1.575-3.5-3.5-3.5
		c-1.7538,0-3.2029,1.3116-3.4492,3H26h-1.6933c-0.2925,1.567-0.691,2.3304-0.8519,2.6636
		c-0.1357,0.2812-0.3174,0.3636-0.4548,0.3278V15.5c0-1.925-1.575-3.5-3.5-3.5c-1.7538,0-3.2029,1.3116-3.4492,3H16h-5V9
		c0-1.1046-0.8954-2-2-2H7C5.8954,7,5,7.8954,5,9v48h6v-8h9h0.0508c0.2463,1.6884,1.6954,3,3.4492,3s3.2029-1.3116,3.4492-3H31
		h0.0508c0.2463,1.6884,1.6954,3,3.4492,3s3.2029-1.3116,3.4492-3H43h0.0508c0.2463,1.6884,1.6954,3,3.4492,3
		s3.2029-1.3116,3.4492-3H53v8h6V9C59,7.8954,58.1046,7,57,7z M53,44h-1.6933c-0.2925,1.567-0.691,2.3304-0.8519,2.6636
		c-0.1357,0.2812-0.3174,0.3636-0.4548,0.3278V44.5c0-1.925-1.575-3.5-3.5-3.5c-1.7538,0-3.2029,1.3116-3.4492,3H43h-3.6933
		c-0.2925,1.567-0.691,2.3304-0.8519,2.6636c-0.1357,0.2812-0.3174,0.3636-0.4548,0.3278V44.5c0-1.925-1.575-3.5-3.5-3.5
		c-1.7538,0-3.2029,1.3116-3.4492,3H31h-2.6933c-0.2925,1.567-0.691,2.3304-0.8519,2.6636
		c-0.1357,0.2812-0.3174,0.3636-0.4548,0.3278V44.5c0-1.925-1.575-3.5-3.5-3.5c-1.7538,0-3.2029,1.3116-3.4492,3H20h-9v-9h2h0.0508
		c0.2463,1.6884,1.6954,3,3.4492,3s3.2029-1.3116,3.4492-3H30h0.0508c0.2463,1.6884,1.6954,3,3.4492,3s3.2029-1.3116,3.4492-3H41
		h0.0508c0.2463,1.6884,1.6954,3,3.4492,3s3.2029-1.3116,3.4492-3H53V44z M53,30h-3.6933c-0.2925,1.567-0.691,2.3304-0.8519,2.6636
		c-0.1357,0.2812-0.3174,0.3636-0.4548,0.3278V30.5c0-1.925-1.575-3.5-3.5-3.5c-1.7538,0-3.2029,1.3116-3.4492,3H41h-2.6933
		c-0.2925,1.567-0.691,2.3304-0.8519,2.6636c-0.1357,0.2812-0.3174,0.3636-0.4548,0.3278V30.5c0-1.925-1.575-3.5-3.5-3.5
		c-1.7538,0-3.2029,1.3116-3.4492,3H30h-8.6933c-0.2925,1.567-0.691,2.3304-0.8519,2.6636
		c-0.1357,0.2812-0.3174,0.3636-0.4548,0.3278V30.5c0-1.925-1.575-3.5-3.5-3.5c-1.7538,0-3.2029,1.3116-3.4492,3H13h-2V20h5h0.0508
		c0.2463,1.6884,1.6954,3,3.4492,3s3.2029-1.3116,3.4492-3H26h0.0508c0.2463,1.6884,1.6954,3,3.4492,3s3.2029-1.3116,3.4492-3H43
		h0.0508c0.2463,1.6884,1.6954,3,3.4492,3s3.2029-1.3116,3.4492-3H53V30z"/>
</g>
</svg>
